polaris-icons/icons/newicons/StoreMajor.svg

<svg width="20" height="20" viewBox="0 0 20 20" fill="none" xmlns="http://www.w3.org/2000/svg">
<path fill-rule="evenodd" clip-rule="evenodd" d="M6.3736 3C5.23573 3 4.21537 3.70078 3.8069 4.76281L3.17648 6.4019C3.05982 6.7052 3 7.02739 3 7.35235C3 8.19175 3.39062 8.93992 4 9.42499V14.25C4 15.7688 5.23122 17 6.75 17H13.25C14.7688 17 16 15.7688 16 14.25V9.42499C16.6094 8.93992 17 8.19175 17 7.35235C17 7.02739 16.9402 6.7052 16.8235 6.4019L16.1931 4.76281C15.7846 3.70078 14.7643 3 13.6264 3H6.3736ZM11 14V15.5H9V14C9 13.7239 9.22386 13.5 9.5 13.5H10.5C10.7761 13.5 11 13.7239 11 14ZM12.5 14V15.5H13.25C13.9404 15.5 14.5 14.9404 14.5 14.25V9.99595C14.4511 9.99864 14.4019 10 14.3524 10H5.64765C5.5981 10 5.54887 9.99864 5.5 9.99595V14.25C5.5 14.9404 6.05964 15.5 6.75 15.5H7.5V14C7.5 12.8954 8.39543 12 9.5 12H10.5C11.6046 12 12.5 12.8954 12.5 14ZM15.4235 6.94037C15.4741 7.07184 15.5 7.21149 15.5 7.35235C15.5 7.98618 14.9862 8.5 14.3524 8.5H13.75V7.25C13.75 6.83579 13.4142 6.5 13 6.5C12.5858 6.5 12.25 6.83579 12.25 7.25V8.5H10.75V7.25C10.75 6.83579 10.4142 6.5 10 6.5C9.58579 6.5 9.25 6.83579 9.25 7.25V8.5H7.75V7.25C7.75 6.83579 7.41421 6.5 7 6.5C6.58579 6.5 6.25 6.83579 6.25 7.25V8.5H5.64765C5.01382 8.5 4.5 7.98618 4.5 7.35235C4.5 7.21149 4.52593 7.07184 4.5765 6.94037L5.20692 5.30128C5.39259 4.81854 5.85638 4.5 6.3736 4.5H13.6264C14.1436 4.5 14.6074 4.81854 14.7931 5.30128L15.4235 6.94037Z" fill="black"/>
</svg>

<svg viewBox="0 0 20 20" fill="none" xmlns="http://www.w3.org/2000/svg"><path fill-rule="evenodd" clip-rule="evenodd" d="M6.374 3a2.75 2.75 0 0 0-2.567 1.763l-.63 1.639a2.648 2.648 0 0 0 .823 3.023v4.825a2.75 2.75 0 0 0 2.75 2.75h6.5a2.75 2.75 0 0 0 2.75-2.75v-4.825a2.643 2.643 0 0 0 .823-3.023l-.63-1.64a2.75 2.75 0 0 0-2.567-1.762h-7.252Zm4.626 11v1.5h-2v-1.5a.5.5 0 0 1 .5-.5h1a.5.5 0 0 1 .5.5Zm1.5 0v1.5h.75c.69 0 1.25-.56 1.25-1.25v-4.254a2.687 2.687 0 0 1-.148.004h-8.704c-.05 0-.1-.001-.148-.004v4.254c0 .69.56 1.25 1.25 1.25h.75v-1.5a2 2 0 0 1 2-2h1a2 2 0 0 1 2 2Zm2.924-7.06a1.147 1.147 0 0 1-1.072 1.56h-.602v-1.25a.75.75 0 0 0-1.5 0v1.25h-1.5v-1.25a.75.75 0 0 0-1.5 0v1.25h-1.5v-1.25a.75.75 0 0 0-1.5 0v1.25h-.602a1.148 1.148 0 0 1-1.071-1.56l.63-1.639a1.25 1.25 0 0 1 1.167-.801h7.252c.518 0 .981.319 1.167.801l.63 1.64Z" fill="#5C5F62"/></svg>
